X:277
T: WOHLAN DIE ZEIT IST KOMMEN
N: E1421
O: Europa, Mitteleuropa, Deutschland, Thueringen; Schlesien
R: Staende -, Soldaten - Lied, Liebe
M: 2/4
L: 1/16
K: F
C2 | F2A2c2f2 | c4A2
A2 | B2B2G2G2 | A2A2A2
C2 | F2A2c2f2 | c4A2
A2 | B2B2G2G2 | F4z2
c2 | B2B2G2G2 | A2A2A2
c2 | B2B2G2G2 | A2A2A2
C2 | F2A2c2f2 | c4A2
cc | B2B2G2G2 | F4z2
c2 | B2B2G2G2 | A2A2A2
c2 | B2B2G2G2 | A2A2A2
C2 | F2A2c2f2 | c4A2
cc | B2B2G2G2 | F4z2

